X:1
T:A minor Samuel Babcock, 1793
T:Thomas Flatman, 1672 Anthem for the Evening      88. 88. (L. M.)
T:Warren
T:Transcribed from The Columbian Harmony, 1793.
%%score [ 1 2 3 4 ]
L:1/8
Q:1/4=120
M:4/4
K:C
V:1 treble nm="Treble" snm="Tr."
V:2 treble nm="Counter" snm="C."
V:3 treble-8 nm="Tenor" snm="T."
V:4 bass nm="Bass" snm="B."
V:1
"^2. Thus   when            the morn,  in      crim– son    dressed, Breaks through the win –  dows   of           the          east,""^1. Sleep! dow      –      ny  sleep! come close    my           eyes, Tired with be – hol       –      ding   va    –     ni    –     ties;" A4 | %1
 (A3 B c2) B2 | A4 e4 | (A2 B2) (3(c2 B2) A2 | ^G4 c4 | e4 d4 | (c3 B A2) A2 | (G3 A) (B2 G2) | %8
 A8 |: z8 | z8 | %11
"^Welcome welcome,  sweet ______         sleep,   welcome  welcome, sweet     sleep,            that   drivest         a   –  way         The""^My hymns, my hymns   of __________      thanks, my hymns  my hymns of       thank      –    ful     praise          shall    rise       Like" c2 A2 e2 e2 | %12
 (e3 d c4) | B4 c2 e2 | c2 A2 (A2 G2) | A6 B2 | c6 cd | e4 B4 | %18
"^toils ________  and    fol         –           lies      of   the  day.  The  toils _________  and   fol          –        lies   of             the                day.""^in       –      cense     of _____________   the      sac–ri–fice.   Like  in        –      cense  of                     the   sac     –     ri         –      fice." (c3 d e2) e2 | %19
 (f2 df e2) c2 | B2 G2 A3 B | (c2 Ac B2) G2 | (e2 ce d2) B2 | c4 (3(B2 ^G2 E2) | A8 :| %25
V:2
 E4 | (E3 D C2) D2 | E4 E4 | (E2 F2) E4 | E4 G4 | G4 G4 | (G3 F E2) F2 | E4 E4 | E8 |: z8 | z8 | %11
 z8 | %12
"^My hymns, my hymns, of   thanks,   My hymns, my hymns, of      thank   –  ful        praise        shall         rise""^Welcome welcome, sweet sleep,     Welcome welcome,  sweet    sleep,       that      drivest       a       –     way" G2 G2 E2 E2 | %13
 G4 G4 | F2 D2 E2 E2 | (E3 F) G4 | G4 E4 | E4 G4 | %18
"^The         toils        and             fol        –     lies,        The          toils                 and    fol     –     lies            of           the                 day.""^Like         in    –   cense,           in        –   cense,       Like         in         –     cense     of             the            sac     –   ri        –        fice." A4 G4 | %19
 F4 E4 | G4 E4 | G6 G2 | G4 E4 | F4 E4 | E8 :| %25
V:3
"^2. Thus   when         the   morn,  in     crim –son      dressed, Breaks through  the win –dows  of          the             east,""^1. Sleep! dow     –     ny   sleep! come close   my            eyes, Tired with be – hol      –      ding   va    –     ni     –      ties;" A4 | %1
 (c3 B A2) G2 | A4 B4 | (e2 d2) c4 | B4 e4 | c4 d4 | (e3 f e2) d2 | c4 B4 | A8 |: z8 | %10
"^Welcome welcome, sweet  sleep,  _________  welcome welcome, sweet       sleep,        that     drivest _____  a   – way             The     toils _________ and""^My hymns, my hymns, of    thanks, ________ my hymns, my hymns of        thank   –   ful       praise _____  shall   rise            Like     in        –      cense" c2 A2 d2 B2 | %11
 (G2 AB) c4- | c4 e2 c2 | d2 B2 (G2 FE) | A6 B2 | (c3 B c2) d2 | e6 e2 | (e2 ce d2) B2 | %18
"^fol         –         lies    of ______________  the     day,       The           toils _________  and    fol         –        lies     of           the                  day.""^of _____________  the   sac          –           ri  –  fice,       Like          in         –      cense    of                    the     sac    –    ri         –        fice." (c2 Ac B2) G2 | %19
 (A2 B2 c2) dc | B4 c4 | (e2 ce d2) B2 | (c2 Ac B2) G2 | A4 ^G4 | A8 :| %25
V:4
 A,,4 | A,,6 B,,2 | C,4 E,4 | (C,2 B,,2) A,,4 | E,4 C,4 | C,4 G,4 | (E,3 D, C,2) D,2 | E,4 E,4 | %8
 A,,8 |:"^Welcome welcome,""^My hymns, my hymns" A,2 E,2 F,2 D,2 | %10
"^sweet _______      sleep,                    welcome welcome welcome welcome  sweet  sleep, _________               that   drivest _________     a       –     way""^of ___________      thanks,          my hymns my hymns my hymns my hymns of    thank         –         –       ful     praise __________   shall         rise" (C,4 G,4) | %11
 C,8 | E,2 E,2 A,2 A,2 | G,2 G,2 E,2 C,2 | F,4 (E,3 D, | C,6) G,2 | (C3 B, A,4) | A,4 G,4 | %18
"^The          toils         and             fol      –      lies,         The           toils ________  and    fol     –     lies            of            the                day.""^Like         in   –    cense,            in      –   cense,        Like          in         –     cense    of             the            sac    –     ri        –       fice." F,4 E,4 | %19
 D,4 C,4 | E,4 A,4 | (E,3 F, G,2) G,2 | %22
"^__________________________________\nEdited by B. C. Johnston, 2016\nMeasure 24, Treble: G changed to G# (as in Tenor)." C,4 E,4 | %23
 (F,2 D,2) E,4 | A,,8 :| %25

